lib/brands/icons/bamboo.svg

<svg xmlns="http://www.w3.org/2000/svg" fill="none" aria-hidden="true" viewBox="0 0 48 48"><g id="bamboo-Icon"><g id="Group"><path id="Vector" fill="#2684FF" d="M38.5768 26.4626H31.0921C30.6039 26.4571 30.1863 26.8121 30.1131 27.2948C29.6879 30.3366 27.085 32.599 24.0137 32.5963L26.0403 41.8531C33.3827 40.8938 39.034 34.8966 39.5559 27.5102C39.5749 27.2389 39.4802 26.9719 39.2945 26.7732C39.1088 26.5745 38.8488 26.462 38.5768 26.4626Z"/><path id="Vector_2" fill="#2684FF" d="M25.6242 26.2277L36.3936 16.9709C36.6043 16.7851 36.7251 16.5176 36.7251 16.2366C36.7251 15.9557 36.6043 15.6882 36.3936 15.5024L25.6242 6.23089C25.3336 5.98562 24.9273 5.9308 24.5821 6.09028C24.2369 6.24977 24.0153 6.59471 24.0137 6.97496V25.4836C24.0153 25.8639 24.2369 26.2088 24.5821 26.3683C24.9273 26.5278 25.3336 26.473 25.6242 26.2277Z"/><path id="Vector_3" fill="url(#paint0_linear_94_18913)" d="M8.58887 28.4844C9.6189 36.2173 16.2123 41.9947 24.0136 42V32.5963C20.6237 32.5963 17.8733 29.8526 17.8652 26.4626L8.58887 28.4844Z"/><path id="Vector_4" fill="url(#paint1_linear_94_18913)" d="M8.44189 26.3158V26.4627H17.8651C17.8732 23.0728 20.6236 20.329 24.0135 20.329L21.9918 11.0722C14.3108 12.0731 8.53534 18.5705 8.44189 26.3158Z"/></g></g><defs><linearGradient id="paint0_linear_94_18913" x1="16.3037" x2="16.3037" y1="11.1897" y2="32.4005" gradientUnits="userSpaceOnUse"><stop stop-color="#0052CC"/><stop offset="1" stop-color="#2684FF"/></linearGradient><linearGradient id="paint1_linear_94_18913" x1="16.2301" x2="16.2301" y1="11.1897" y2="32.4005" gradientUnits="userSpaceOnUse"><stop stop-color="#0052CC"/><stop offset="1" stop-color="#2684FF"/></linearGradient></defs></svg>

<svg xmlns="http://www.w3.org/2000/svg" fill="none" aria-hidden="true" viewBox="0 0 48 48"><path fill="#2684FF" d="M38.577 26.463h-7.485a.979.979 0 0 0-.979.832 6.153 6.153 0 0 1-6.1 5.301l2.027 9.257A15.572 15.572 0 0 0 39.556 27.51a.98.98 0 0 0-.98-1.047Zm-12.953-.235 10.77-9.257a.98.98 0 0 0 0-1.469l-10.77-9.271a.979.979 0 0 0-1.61.744v18.509a.979.979 0 0 0 1.61.744Z"/><path fill="url(#a)" d="M8.589 28.484A15.572 15.572 0 0 0 24.014 42v-9.404a6.148 6.148 0 0 1-6.149-6.133L8.59 28.484Z"/><path fill="url(#b)" d="M8.442 26.316v.147h9.423a6.148 6.148 0 0 1 6.149-6.134l-2.022-9.257a15.562 15.562 0 0 0-13.55 15.244Z"/><defs><linearGradient id="a" x1="16.304" x2="16.304" y1="11.19" y2="32.401" gradientUnits="userSpaceOnUse"><stop stop-color="#0052CC"/><stop offset="1" stop-color="#2684FF"/></linearGradient><linearGradient id="b" x1="16.23" x2="16.23" y1="11.19" y2="32.401" gradientUnits="userSpaceOnUse"><stop stop-color="#0052CC"/><stop offset="1" stop-color="#2684FF"/></linearGradient></defs></svg>
